X: 42984
T: Willie Reidy's Favourite
R: slide
M: 12/8
K: Dmajor
|:F2D FGA F2D FAF|EGE EFG E2D E2A|
F2D FGA F2D FAF|1 E2E GFE D3 D2E:|2 E2E GFE D3 B2c||
|:d3 A3 dcd A2B|cBc E2E cBc E2E|
d2d ABc d2e fed|1 ecA GFE D3 B2c:|2 ecA GFE D3 D2E|

